X: 20
T: Banshee, The
C: James McMahon
Z: Sean Perry
S: https://thesession.org/tunes/8#setting52370
R: reel
M: 4/4
L: 1/8
K: Gmaj
|:G2 GD EDEG|A2 B2 d2 Bd|e2 ed BAGA|BAGF EDDE|
G2 GD EDEG|A2 B2 d2 Bd|e2 ed BAGA|BAGF ED D2:|
|:A2 ag efgf|edBA B2 d2|eB B2 efgf|eBBA B2 d2|
eaag efgf|edBA B2 d2|e2 ed BAGA|BAGE ED D2:|

